!!!id: EG030
!!!page: 73-74
!!!COM: Anonymous
!!!LYR: Anonymous
!!!PTL@@FR: Chansons Populaires du Canada
!!!OTL@@FR: La bibournoise
!!!PUB: G. E. Desbarats
!!!YEM:
!!!PDT: 1865
!!!SMA:
!!!OMD:
!!!AGN-Laforte:
!!!AGN-type:
!!!AGN-rime:
**kern
*clefG2
*k[f#]
*e:
*M6/8
*
*
8B
=1
4e
8f#
4g
8a
=2
[4.b/
8b/]
8r
8a#
=3
4b
8cc#
4dd
8cc#
!!LO:PB:g=original
=4
*M3/8
4b
8cc#
=5
*M6/8
4.dd
4.cc
=6
[4.b
8b]
8r
8b
=7
4cc
8b/
4a
8g
=8
4.g
4f#
8g
!!LO:PB:g=original
=9
4a
8b/
4g
8e
=10
4f#
8r
8b/
8b/
8b/
=11
4g
8e
4b/
8b/
!!LO:PB:g=original
=12
4b
8b
4b
8b
=13
4b/
8b/
8b/
8a
8g
=14
4f#
8r
4a
8a
!!LO:PB:g=original
=15
8a
8b/
8cc/
4b/
8g
=16
4f#
8r
4g
8g
=17
4f#
8r
4g
8g
!!LO:PB:g=original
=18
4f#
8r
8e
8e
8e
=19
8e
8e
8e
8eL
8dJ
8c
=20
4B
8r
4.g
!!LO:PB:g=original
=21
4.g
8g
8g
8g
=22
8g
8g
8g
4a
8d
=23
4.a
4.a
!!LO:PB:g=original
=24
8a
8a
8a
8a
8a
8a
=25
8a
8b
8cc
8b
8cc
8a
=26
(4g
8f#)
4e
!!LO:PB:g=original
==||
8r
==||
*
*
==|
!!!RNB: Coutesy C-natural accidental at beginning of m.7
*-
